svgs-playground/pen-2.svg

<?xml version="1.0" encoding="UTF-8" standalone="no"?><!DOCTYPE svg PUBLIC "-//W3C//DTD SVG 1.1//EN" "http://www.w3.org/Graphics/SVG/1.1/DTD/svg11.dtd"><!-- Created with Vectornator (http://vectornator.io/) --><svg height="100%" stroke-miterlimit="10" style="fill-rule:nonzero;clip-rule:evenodd;stroke-linecap:round;stroke-linejoin:round;" version="1.1" viewBox="1.59945 1.59916 96.8011 96.8017" width="100%" xml:space="preserve" xmlns="http://www.w3.org/2000/svg" xmlns:vectornator="http://vectornator.io" xmlns:xlink="http://www.w3.org/1999/xlink"><defs><linearGradient gradientTransform="matrix(-38.2421 134.695 -134.695 -38.2421 88.1842 11.5972)" gradientUnits="userSpaceOnUse" id="LinearGradient" x1="0" x2="1" y1="0" y2="0"><stop offset="0" stop-color="#00ddfc"/><stop offset="0.344737" stop-color="#01dcfe"/><stop offset="1" stop-color="#1e61ff"/></linearGradient><linearGradient gradientTransform="matrix(0 71.6224 -71.6224 0 52.9193 12.5855)" gradientUnits="userSpaceOnUse" id="LinearGradient_2" x1="0" x2="1" y1="0" y2="0"><stop offset="0" stop-color="#b66dff" stop-opacity="0.475988"/><stop offset="1" stop-color="#b871ff" stop-opacity="0.4"/></linearGradient><linearGradient gradientTransform="matrix(0.512103 105.216 -105.216 0.512103 52.6306 -5.30261)" gradientUnits="userSpaceOnUse" id="LinearGradient_3" x1="0" x2="1" y1="0" y2="0"><stop offset="0" stop-color="#f5ebff" stop-opacity="0.2"/><stop offset="1" stop-color="#daa6ff" stop-opacity="0.4"/></linearGradient><linearGradient gradientTransform="matrix(74.7812 102.495 -102.495 74.7812 38.0264 -7.03212)" gradientUnits="userSpaceOnUse" id="LinearGradient_4" x1="0" x2="1" y1="0" y2="0"><stop offset="0" stop-color="#00ddfc"/><stop offset="0.344737" stop-color="#01dcfe"/><stop offset="1" stop-color="#1e61ff"/></linearGradient></defs><g id="Layer"><g opacity="1"><g opacity="1"><path d="M97.2792 17.6187L83.3243 31.5736L82.1604 30.4097L22.0464 90.5237L18.6246 91.2919L15.2726 92.0368L13.1311 92.5023C12.3397 92.6885 11.525 92.4325 10.9663 91.8738L8.12645 89.034C7.5678 88.4753 7.31174 87.6606 7.49796 86.8692L7.96351 84.7277L8.70839 81.3757L9.47655 77.9539L69.6139 17.8399L68.45 16.676L82.3816 2.72114C82.4747 2.79097 82.5678 2.8608 82.6609 2.95391L83.7317 4.02467L95.9756 16.2686L97.0464 17.3394C97.1395 17.4325 97.2093 17.5256 97.2792 17.6187Z" fill="#118bef" fill-rule="nonzero" opacity="0.2" stroke="none"/><path d="M95.9756 16.2686L82.0091 30.2351L80.8453 29.0712L18.6246 91.2919L15.2726 92.0368L13.1311 92.5023C12.3397 92.6885 11.525 92.4325 10.9663 91.8738L8.12645 89.034C7.5678 88.4753 7.31174 87.6606 7.49796 86.8692L7.96351 84.7277L8.70839 81.3757L70.9291 19.155L69.7652 17.9912L83.7317 4.02467L95.9756 16.2686Z" fill="#118bef" fill-rule="nonzero" opacity="0.3" stroke="none"/><path d="M94.6721 14.9651L80.694 28.9199L79.5301 27.7561L15.2726 92.0368L13.1311 92.5023C12.3397 92.6885 11.525 92.4325 10.9663 91.8738L8.12645 89.034C7.5678 88.4753 7.31174 87.6606 7.49796 86.8692L7.96351 84.7277L72.2442 20.4702L71.0804 19.3063L85.0352 5.32821L94.6721 14.9651Z" fill="#118bef" fill-rule="nonzero" opacity="0.4" stroke="none"/><path d="M96.8369 3.16341C94.9095 1.23603 91.781 1.23603 89.8536 3.16341L72.3955 20.6215L73.5594 21.7854L2.56314 92.7817C1.27822 94.0666 1.27822 96.1522 2.56314 97.4372C3.84806 98.7221 5.93372 98.7221 7.21863 97.4372L78.2149 26.4409L79.3788 27.6047L96.8369 10.1466C98.7643 8.21927 98.7643 5.09078 96.8369 3.16341Z" fill="url(#LinearGradient)" fill-rule="nonzero" opacity="1" stroke="none"/></g><g opacity="1"><path d="M96.6507 10.3561L95.9756 11.0079L95.3238 11.6597L94.6721 12.3347L94.0203 12.9865L79.3788 27.6047L78.2149 26.4409L10.7103 93.9455L10.0352 94.6439C10.0119 94.6439 10.0119 94.6439 10.0119 94.6439L8.66184 95.9939C8.31267 95.7379 7.98679 95.4818 7.68418 95.1792L4.82105 92.3161C4.51845 92.0135 4.2624 91.6876 4.00634 91.3385L6.05476 89.29L6.75308 88.615C6.75308 88.615 6.75308 88.615 6.75308 88.5917L73.5594 21.7854L72.3955 20.6215L87.0371 6.00326L87.6888 5.35149L88.3406 4.67644L88.9924 4.02467L89.6674 3.3729L96.6507 10.3561Z" fill="#00a5ff" fill-rule="nonzero" opacity="0.05" stroke="none"/><path d="M95.9756 11.0079L95.3238 11.6597L94.6721 12.3347L94.0203 12.9865L79.3788 27.6047L78.2149 26.4409L10.7103 93.9455L10.0352 94.6439C10.0119 94.6439 10.0119 94.6439 10.0119 94.6439L9.33688 95.3189C8.96444 95.0861 8.63856 94.8301 8.33595 94.5275L5.4961 91.6643C5.19349 91.3617 4.91416 91.0358 4.68139 90.6634L6.05476 89.29L6.75308 88.615C6.75308 88.615 6.75308 88.615 6.75308 88.5917L73.5594 21.7854L72.3955 20.6215L87.0371 6.00326L87.6888 5.35149L88.3406 4.67644L88.9924 4.02467L95.9756 11.0079Z" fill="#00a5ff" fill-rule="nonzero" opacity="0.1" stroke="none"/><path d="M95.3238 11.6597L94.6721 12.3347L94.0203 12.9865L79.3788 27.6047L78.2149 26.4409L10.7103 93.9455L10.0352 94.6439C10.0119 94.6439 10.0119 94.6439 10.0119 94.6439C9.63949 94.4111 9.29033 94.155 8.98772 93.8524L6.14787 91.0126C5.84526 90.71 5.56593 90.3608 5.35644 89.9884L6.05476 89.29L6.75308 88.615C6.75308 88.615 6.75308 88.615 6.75308 88.5917L73.5594 21.7854L72.3955 20.6215L87.0371 6.00326L87.6888 5.35149L88.3406 4.67644L95.3238 11.6597Z" fill="#00a5ff" fill-rule="nonzero" opacity="0.2" stroke="none"/><path d="M94.6721 12.3347L94.0203 12.9865L79.3788 27.6047L78.2149 26.4409L10.7103 93.9455C10.3145 93.7593 9.96537 93.5033 9.66277 93.2007L6.79964 90.3375C6.49703 90.0349 6.24098 89.6858 6.05476 89.29L6.75308 88.615C6.75308 88.615 6.75308 88.615 6.75308 88.5917L73.5594 21.7854L72.3955 20.6215L87.0371 6.00326L87.6888 5.35149L94.6721 12.3347Z" fill="#00a5ff" fill-rule="nonzero" opacity="0.2" stroke="none"/><path d="M94.0203 12.9865L79.3788 27.6047L78.2149 26.4409L11.4086 93.2472C11.0129 93.1075 10.6171 92.8515 10.3145 92.5489L7.47469 89.6858C7.17208 89.3831 6.91603 89.0107 6.75308 88.615C6.75308 88.615 6.75308 88.615 6.75308 88.5917L73.5594 21.7854L72.3955 20.6215L87.0371 6.00326L94.0203 12.9865Z" fill="#00a5ff" fill-rule="nonzero" opacity="0.3" stroke="none"/></g><g opacity="1"><path d="M98.2103 19.318L84.6395 32.8887L83.4756 31.7249L25.3983 89.7789L22.0464 90.5237L18.6246 91.2919L15.2726 92.0368L13.1311 92.5023C12.3397 92.6885 11.525 92.4325 10.9663 91.8738L8.12645 89.034C7.5678 88.4753 7.31174 87.6606 7.49796 86.8692L7.96351 84.7277L8.70839 81.3757L9.47655 77.9539L10.2214 74.602L68.2754 16.5247L67.1116 15.3608L80.6823 1.79004C81.2875 1.95298 81.8695 2.25559 82.3816 2.72114C82.4747 2.79097 82.5678 2.8608 82.6609 2.95391L83.7317 4.02467L95.9756 16.2686L97.0464 17.3394C97.1395 17.4325 97.2093 17.5256 97.2792 17.6187C97.7447 18.1308 98.0473 18.7128 98.2103 19.318Z" fill="#00a5ff" fill-rule="nonzero" opacity="0.1" stroke="none"/><path d="M76.0873 2.96264L12.8332 66.2168C12.207 66.843 11.7717 67.6344 11.5808 68.498L7.49564 86.8779C7.32338 87.6554 7.55848 88.4654 8.1218 89.0287L10.971 91.8779C11.5343 92.4412 12.3443 92.6763 13.1218 92.5041L31.5017 88.4189C32.3653 88.2257 33.1567 87.7927 33.7829 87.1666L97.0371 23.9124C98.855 22.0944 98.855 19.1475 97.0371 17.3295L82.6702 2.96264C80.8522 1.14467 77.9053 1.14467 76.0873 2.96264Z" fill="url(#LinearGradient_2)" fill-rule="nonzero" opacity="1" stroke="none"/><path d="M79.3788 2.76304C80.3122 2.76304 81.1874 3.12616 81.8485 3.78492L96.2154 18.1518C96.8741 18.8105 97.2373 19.6881 97.2373 20.6215C97.2373 21.5549 96.8741 22.4302 96.2154 23.0912L32.9589 86.3454C32.4887 86.8156 31.8974 87.1415 31.248 87.2858L12.8681 91.371C12.7843 91.3897 12.7005 91.399 12.6167 91.399C12.3094 91.399 12.0091 91.2756 11.7927 91.0591L8.94349 88.21C8.66184 87.9237 8.54545 87.5209 8.63158 87.1322L12.7168 68.7523C12.8611 68.1029 13.187 67.5116 13.6572 67.0414L76.909 3.78724C77.5701 3.12616 78.4454 2.76304 79.3788 2.76304M79.3788 1.59916C78.187 1.59916 76.9952 2.05307 76.0873 2.96322L12.8332 66.2174C12.207 66.8436 11.7717 67.635 11.5808 68.4986L7.49564 86.8785C7.32338 87.656 7.55848 88.466 8.1218 89.0293L10.971 91.8785C11.4132 92.3208 12.0068 92.5605 12.6167 92.5605C12.7843 92.5605 12.9542 92.5419 13.1218 92.5047L31.5017 88.4195C32.3653 88.2263 33.1567 87.7933 33.7829 87.1671L97.0371 23.9129C98.855 22.095 98.855 19.148 97.0371 17.3301L82.6702 2.96322C81.7624 2.0554 80.5706 1.59916 79.3788 1.59916L79.3788 1.59916Z" fill="url(#LinearGradient_3)" fill-rule="nonzero" opacity="0" stroke="none"/></g><path d="M72.3955 6.65503L65.4123 13.6383L83.0706 31.2966C84.8886 33.1145 84.8886 36.0615 83.0706 37.8794L61.9207 59.0293C59.9933 60.9567 59.9933 64.0852 61.9207 66.0126L61.9207 66.0126C63.8481 67.9399 66.9765 67.9399 68.9039 66.0126L90.4519 44.4646C95.9058 39.0107 95.9058 30.1676 90.4519 24.7137L72.3955 6.65503Z" fill="url(#LinearGradient_4)" fill-rule="nonzero" opacity="1" stroke="none"/></g></g></svg>

<svg viewBox="0 0 100 100" width="100%" height="100%" xmlns="http://www.w3.org/2000/svg" xml:space="preserve" stroke-miterlimit="10" style="fill-rule:nonzero;clip-rule:evenodd;stroke-linecap:round;stroke-linejoin:round"><defs><linearGradient id="LGBallPena" x1="0" x2="1" y1="0" y2="0" gradientTransform="scale(-140.0186) rotate(-74.15 -.37 .375)" gradientUnits="userSpaceOnUse"><stop offset="0" stop-color="#00ddfc"/><stop offset=".345" stop-color="#01dcfe"/><stop offset="1" stop-color="#1e61ff"/></linearGradient><linearGradient id="LGBallPenb" x1="0" x2="1" y1="0" y2="0" gradientTransform="rotate(90 20.167 32.752) scale(71.6224)" gradientUnits="userSpaceOnUse"><stop offset="0" stop-color="#b66dff" stop-opacity=".476"/><stop offset="1" stop-color="#b871ff" stop-opacity=".4"/></linearGradient><linearGradient id="LGBallPenc" x1="0" x2="1" y1="0" y2="0" gradientTransform="matrix(.5121 105.216 -105.216 .5121 52.63 -5.303)" gradientUnits="userSpaceOnUse"><stop offset="0" stop-color="#f5ebff" stop-opacity=".2"/><stop offset="1" stop-color="#daa6ff" stop-opacity=".4"/></linearGradient><linearGradient id="LGBallPend" x1="0" x2="1" y1="0" y2="0" gradientTransform="scale(126.8757) rotate(53.885 .204 .267)" gradientUnits="userSpaceOnUse"><stop offset="0" stop-color="#00ddfc"/><stop offset=".345" stop-color="#01dcfe"/><stop offset="1" stop-color="#1e61ff"/></linearGradient></defs><path fill="#118bef" d="M97.28 17.619 83.323 31.574 82.16 30.41 22.046 90.524l-3.421.768-3.352.745-2.142.465a2.317 2.317 0 0 1-2.165-.628l-2.84-2.84a2.317 2.317 0 0 1-.628-2.165l.466-2.141.744-3.352.769-3.422L69.614 17.84l-1.164-1.164L82.382 2.721c.093.07.186.14.279.233l1.07 1.07L95.977 16.27l1.07 1.07c.093.094.163.187.233.28Z" opacity=".2"/><path fill="#118bef" d="M95.976 16.269 82.009 30.235l-1.164-1.164-62.22 62.22-3.352.746-2.142.465a2.317 2.317 0 0 1-2.165-.628l-2.84-2.84a2.317 2.317 0 0 1-.628-2.165l.466-2.141.744-3.352L70.93 19.155l-1.164-1.164L83.732 4.025l12.244 12.244Z" opacity=".3"/><path fill="#118bef" d="M94.672 14.965 80.694 28.92l-1.164-1.164-64.257 64.28-2.142.466a2.317 2.317 0 0 1-2.165-.628l-2.84-2.84a2.317 2.317 0 0 1-.628-2.165l.466-2.141 64.28-64.258-1.164-1.164L85.035 5.328l9.637 9.637Z" opacity=".4"/><path fill="url(#LGBallPena)" d="M96.837 3.163a4.94 4.94 0 0 0-6.983 0L72.395 20.622l1.164 1.163L2.563 92.782a3.293 3.293 0 0 0 4.656 4.655l70.996-70.996 1.164 1.164 17.458-17.458a4.94 4.94 0 0 0 0-6.984Z"/><g fill="#00a5ff"><path d="m96.65 10.356-.674.652-.652.652-.652.675-.652.651L79.38 27.605l-1.164-1.164L10.71 93.945l-.675.699h-.023l-1.35 1.35a8.24 8.24 0 0 1-.978-.815l-2.863-2.863a8.25 8.25 0 0 1-.815-.978l2.049-2.048.698-.675v-.023L73.56 21.785l-1.163-1.163L87.037 6.003l.652-.652.652-.675.651-.651.675-.652 6.984 6.983Z" opacity=".05"/><path d="m95.976 11.008-.652.652-.652.675-.652.651L79.38 27.605l-1.164-1.164L10.71 93.945l-.675.699h-.023l-.675.675a5.553 5.553 0 0 1-1.001-.791l-2.84-2.864a5.67 5.67 0 0 1-.815-1l1.374-1.374.698-.675v-.023L73.56 21.785l-1.163-1.163L87.037 6.003l.652-.652.652-.675.651-.651 6.984 6.983Z" opacity=".1"/><path d="m95.324 11.66-.652.675-.652.651L79.38 27.605l-1.164-1.164L10.71 93.945l-.675.699h-.023a5.722 5.722 0 0 1-1.024-.792l-2.84-2.84a4.821 4.821 0 0 1-.792-1.024l.699-.698.698-.675v-.023L73.56 21.785l-1.163-1.163L87.037 6.003l.652-.652.652-.675 6.983 6.984Z" opacity=".2"/><path d="m94.672 12.335-.652.651L79.38 27.605l-1.164-1.164L10.71 93.945a3.727 3.727 0 0 1-1.047-.744L6.8 90.338a3.727 3.727 0 0 1-.745-1.048l.698-.675v-.023L73.56 21.785l-1.163-1.163L87.037 6.003l.652-.652 6.983 6.984Z" opacity=".2"/><path d="M94.02 12.986 79.38 27.605l-1.164-1.164-66.806 66.806a3.032 3.032 0 0 1-1.095-.698l-2.84-2.863a3.344 3.344 0 0 1-.72-1.071v-.023l66.805-66.807-1.163-1.163L87.037 6.003l6.983 6.983Z" opacity=".3"/></g><path fill="#00a5ff" d="m98.21 19.318-13.57 13.57-1.164-1.163-58.078 58.054-3.352.745-3.421.768-3.352.745-2.142.465a2.317 2.317 0 0 1-2.165-.628l-2.84-2.84a2.317 2.317 0 0 1-.628-2.165l.466-2.141.744-3.352.769-3.422.744-3.352 58.054-58.077-1.163-1.164L80.682 1.79a4.091 4.091 0 0 1 1.7.931c.093.07.186.14.279.233l1.07 1.07L95.977 16.27l1.07 1.07c.093.094.163.187.233.28.466.512.768 1.094.931 1.699Z" opacity=".1"/><path fill="url(#LGBallPenb)" d="M76.087 2.963 12.833 66.217a4.646 4.646 0 0 0-1.252 2.281l-4.085 18.38a2.327 2.327 0 0 0 .626 2.15l2.849 2.85a2.327 2.327 0 0 0 2.15.626l18.38-4.085a4.665 4.665 0 0 0 2.282-1.252l63.254-63.255a4.655 4.655 0 0 0 0-6.582L82.67 2.962a4.655 4.655 0 0 0-6.583 0Z"/><path fill="url(#LGBallPend)" d="m72.395 6.655-6.983 6.983 17.659 17.659a4.654 4.654 0 0 1 0 6.582L61.92 59.03a4.94 4.94 0 0 0 0 6.984 4.94 4.94 0 0 0 6.983 0l21.548-21.548c5.454-5.454 5.454-14.297 0-19.751L72.396 6.655Z"/></svg>
